public/img/anti-feature-5.svg

<svg width="88" height="88" viewBox="0 0 88 88" fill="none" xmlns="http://www.w3.org/2000/svg">
<path d="M74.7492 58.6668L75.5787 57.8372C76.0369 57.379 76.0369 56.6363 75.5787 56.1781C75.1205 55.7199 74.3778 55.7199 73.9196 56.1781L73.0901 57.0077L72.2605 56.1781C71.8024 55.7199 71.0596 55.7199 70.6015 56.1781C70.1433 56.6363 70.1433 57.379 70.6015 57.8372L71.431 58.6668L70.6015 59.4963C70.1433 59.9545 70.1433 60.6972 70.6015 61.1554C70.8305 61.3845 71.1309 61.4992 71.431 61.4992C71.7311 61.4992 72.0314 61.3845 72.2605 61.1554L73.0901 60.3258L73.9196 61.1554C74.1487 61.3845 74.4491 61.4992 74.7492 61.4992C75.0493 61.4992 75.3496 61.3845 75.5787 61.1554C76.0369 60.6972 76.0369 59.9545 75.5787 59.4963L74.7492 58.6668Z" fill="black"/>
<path d="M54.3179 75.0935C54.9659 75.0935 55.4912 74.5682 55.4912 73.9202C55.4912 73.2721 54.9659 72.7468 54.3179 72.7468C53.6699 72.7468 53.1445 73.2721 53.1445 73.9202C53.1445 74.5682 53.6699 75.0935 54.3179 75.0935Z" fill="black"/>
<path d="M64.5607 12.9067H56.6648C56.0162 12.9067 55.4915 13.4315 55.4915 14.0801C55.4915 14.7286 56.0162 15.2534 56.6648 15.2534H64.5607C65.3824 15.2534 66.0515 15.9225 66.0515 16.7441V65.3894C66.0515 66.211 65.3824 66.8801 64.5607 66.8801H15.9155C15.0939 66.8801 14.4248 66.211 14.4248 65.3894V16.7441C14.4248 15.9225 15.0939 15.2534 15.9155 15.2534H50.6412C51.2898 15.2534 51.8145 14.7286 51.8145 14.0801C51.8145 13.4315 51.2898 12.9067 50.6412 12.9067H15.9155C13.7991 12.9067 12.0781 14.6277 12.0781 16.7441V65.3894C12.0781 67.5058 13.7991 69.2267 15.9155 69.2267H64.5607C66.6771 69.2267 68.3981 67.5058 68.3981 65.3894V16.7441C68.3981 14.6277 66.6771 12.9067 64.5607 12.9067Z" fill="black"/>
<path d="M35.5452 26.9869C35.5452 26.3383 35.0204 25.8135 34.3718 25.8135C33.7233 25.8135 33.1985 26.3383 33.1985 26.9869V32.3678L19.948 19.1173C19.4899 18.6591 18.7471 18.6591 18.289 19.1173C17.8308 19.5755 17.8308 20.3182 18.289 20.7764L31.5394 34.0269H26.1585C25.5099 34.0269 24.9852 34.5516 24.9852 35.2002C24.9852 35.8488 25.5099 36.3735 26.1585 36.3735H34.3718C35.0204 36.3735 35.5452 35.8488 35.5452 35.2002V26.9869Z" fill="black"/>
<path d="M55.4897 46.9333C55.4897 46.2848 54.9649 45.76 54.3164 45.76H46.103C45.4545 45.76 44.9297 46.2848 44.9297 46.9333V55.1467C44.9297 55.7952 45.4545 56.32 46.103 56.32C46.7516 56.32 47.2764 55.7952 47.2764 55.1467V49.7658L60.5268 63.0162C60.7559 63.2453 61.0563 63.36 61.3563 63.36C61.6564 63.36 61.9568 63.2453 62.1859 63.0162C62.6441 62.558 62.6441 61.8153 62.1859 61.3571L48.9354 48.1067H54.3164C54.9649 48.1067 55.4897 47.5819 55.4897 46.9333Z" fill="black"/>
<path d="M62.1859 19.1173C61.7277 18.6591 60.985 18.6591 60.5268 19.1173L47.2764 32.3678V26.9869C47.2764 26.3383 46.7516 25.8135 46.103 25.8135C45.4545 25.8135 44.9297 26.3383 44.9297 26.9869V35.2002C44.9297 35.8488 45.4545 36.3735 46.103 36.3735H54.3164C54.9649 36.3735 55.4897 35.8488 55.4897 35.2002C55.4897 34.5516 54.9649 34.0269 54.3164 34.0269H48.9354L62.1859 20.7764C62.6441 20.3182 62.6441 19.5755 62.1859 19.1173Z" fill="black"/>
<path d="M34.3718 56.32C35.0204 56.32 35.5452 55.7952 35.5452 55.1467V46.9333C35.5452 46.2848 35.0204 45.76 34.3718 45.76H26.1585C25.5099 45.76 24.9852 46.2848 24.9852 46.9333C24.9852 47.5819 25.5099 48.1067 26.1585 48.1067H31.5394L18.289 61.3571C17.8308 61.8153 17.8308 62.558 18.289 63.0162C18.518 63.2453 18.8184 63.36 19.1185 63.36C19.4186 63.36 19.719 63.2453 19.948 63.0162L33.1985 49.7658V55.1467C33.1985 55.7952 33.7233 56.32 34.3718 56.32Z" fill="black"/>
</svg>

<svg width="88" height="88" fill="none" xmlns="http://www.w3.org/2000/svg"><path d="M74.75 58.667l.829-.83a1.173 1.173 0 10-1.66-1.659l-.829.83-.83-.83a1.173 1.173 0 10-1.659 1.66l.83.829-.83.83a1.173 1.173 0 101.66 1.658l.83-.83.829.83a1.17 1.17 0 001.659 0c.458-.458.458-1.2 0-1.659l-.83-.83zM54.318 75.094a1.173 1.173 0 100-2.347 1.173 1.173 0 000 2.347zM64.56 12.907h-7.895a1.173 1.173 0 100 2.346h7.896c.821 0 1.49.67 1.49 1.491V65.39c0 .822-.669 1.491-1.49 1.491H15.915c-.821 0-1.49-.669-1.49-1.49V16.743c0-.822.669-1.49 1.49-1.49h34.726a1.173 1.173 0 100-2.347H15.916a3.841 3.841 0 00-3.838 3.837V65.39a3.841 3.841 0 003.838 3.838H64.56a3.841 3.841 0 003.837-3.838V16.744a3.841 3.841 0 00-3.837-3.837z" fill="#000"/><path d="M35.545 26.987a1.173 1.173 0 10-2.346 0v5.38l-13.251-13.25a1.173 1.173 0 10-1.659 1.66l13.25 13.25h-5.38a1.173 1.173 0 100 2.346h8.213c.648 0 1.173-.524 1.173-1.173v-8.213zM55.49 46.933c0-.648-.525-1.173-1.174-1.173h-8.213c-.648 0-1.173.525-1.173 1.173v8.214a1.173 1.173 0 102.346 0v-5.381l13.25 13.25a1.17 1.17 0 001.66 0c.458-.458.458-1.2 0-1.659l-13.25-13.25h5.38c.649 0 1.174-.525 1.174-1.174zm6.696-27.816a1.173 1.173 0 00-1.66 0l-13.25 13.25v-5.38a1.173 1.173 0 10-2.346 0V35.2c0 .649.525 1.173 1.173 1.173h8.213a1.173 1.173 0 100-2.346h-5.38l13.25-13.25a1.175 1.175 0 000-1.66zM34.372 56.32c.648 0 1.173-.525 1.173-1.173v-8.214c0-.648-.525-1.173-1.173-1.173h-8.213a1.173 1.173 0 100 2.347h5.38l-13.25 13.25a1.173 1.173 0 101.659 1.66l13.25-13.251v5.38c0 .65.525 1.174 1.174 1.174z" fill="#000"/></svg>
